X: 407
T: Blue Goose
C:Buddy Thomas
B: jims roots
M:C|
L:1/8
Q: 1/4=100
K:G
V:1 
%S:Buddy Thomas, 1935-1974, Kentucky
%D:Round 0032, Buddy Thomas &#8211; Kitty Puss (1976)
%F: http://www.slippery-hill.com/recording/blue-goose
ef|"G"g2g2+slide+b3b|a2g2e3g|edBA GBAG|"D"EG2[GB] "G"[G2B2]ef|
   "G"g2g2 b3a|baga edef|gedc BGAG|"D"E[G,2G2] [G,G] "G"[G,2G2]||
|:"G"([DB][Dc]|[D2d2])[D2d2][DB][DA][DB][Dc]|[D2d2][DB][DA] G2[DB][Dc]|[D2d2][Dd][Dd] [DB][DA]G[DB]|"D"[DA]FDF "G"G2:||
|:([DB][Dc]|[D2d2])[D2d2][DB][DA][DB][Dc]|[D2d2][DB][DA] G2 [DA][Dc]|[DB][Dd][De][Dd] [DB][DA]G[DB]|"D"[DA]FDF "G"G2:||
% abcbook-tune_id 6298c245d251d47f94cb83ba


% abcbook-boost 0
% abcbook-tablature 
% abcbook-transpose 
% abcbook-lastupdated 1654178373398
% abcbook-soundfonts 
% abcbook-repeats 1


